images/screen.svg

<?xml version="1.0" encoding="UTF-8"?>
<svg xmlns="http://www.w3.org/2000/svg" xmlns:xlink="http://www.w3.org/1999/xlink" width="128px" height="128px" viewBox="0 0 128 128" version="1.1">
  <title>编组 3</title>
  <g id="当前版" stroke="none" stroke-width="1" fill="none" fill-rule="evenodd">
    <g id="更多" transform="translate(-47.000000, -1147.000000)">
      <g id="编组-3" transform="translate(47.000000, 1147.000000)">
        <rect id="矩形备份-43" fill="#FFFFFF" x="0" y="0" width="128" height="128" rx="20"></rect>
        <path d="M72.145898,43 C73.2822142,43 74.3210036,43.6420071 74.8291796,44.6583592 L75.8944272,46.7888544 C76.5719952,48.1439905 77.9570477,49 79.472136,49 L87,49 C88.6568542,49 90,50.3431458 90,52 L90,82 C90,83.6568542 88.6568542,85 87,85 L41,85 C39.3431458,85 38,83.6568542 38,82 L38,52 C38,50.3431458 39.3431458,49 41,49 L48.5273733,49 C50.042196,49 51.4270534,48.1442873 52.1047524,46.7895135 L53.1708204,44.6583592 C53.6789964,43.6420071 54.7177858,43 55.854102,43 L72.145898,43 Z M64,54 C57.372583,54 52,59.372583 52,66 C52,72.627417 57.372583,78 64,78 C70.627417,78 76,72.627417 76,66 C76,59.372583 70.627417,54 64,54 Z M64,58 C68.418278,58 72,61.581722 72,66 C72,70.418278 68.418278,74 64,74 C59.581722,74 56,70.418278 56,66 C56,61.581722 59.581722,58 64,58 Z" id="形状结合" fill="#5C6168"></path>
      </g>
    </g>
  </g>
</svg>

<?xml version="1.0" encoding="UTF-8"?>
<svg id="_图层_1" data-name="图层_1" xmlns="http://www.w3.org/2000/svg" version="1.1" viewBox="0 0 128 128">
  <!-- Generator: Adobe Illustrator 29.1.0, SVG Export Plug-In . SVG Version: 2.1.0 Build 142)  -->
  <defs>
    <style>
      .st0 {
        fill: #bcbcbc;
        fill-rule: evenodd;
      }
    </style>
  </defs>
  <path id="_形状结合" data-name="形状结合" class="st0" d="M72.1,43c1.1,0,2.2.6,2.7,1.7l1.1,2.1c.7,1.4,2.1,2.2,3.6,2.2h7.5c1.7,0,3,1.3,3,3v30c0,1.7-1.3,3-3,3h-46c-1.7,0-3-1.3-3-3v-30c0-1.7,1.3-3,3-3h7.5c1.5,0,2.9-.9,3.6-2.2l1.1-2.1c.5-1,1.5-1.7,2.7-1.7h16.3ZM64,54c-6.6,0-12,5.4-12,12s5.4,12,12,12,12-5.4,12-12-5.4-12-12-12ZM64,58c4.4,0,8,3.6,8,8s-3.6,8-8,8-8-3.6-8-8,3.6-8,8-8Z"/>
</svg>
